icons/tokens/0x16de59092dAE5CcF4A1E6439D611fd0653f0Bd01/logo.svg

<svg xmlns="http://www.w3.org/2000/svg" width="32" height="32" viewBox="0 0 32 32">
  <g fill="none" fill-rule="evenodd">
    <path fill="#FFF" d="M32,15.999936 C32,13.905856 31.58336,11.811776 30.78208,9.877056 C29.98048,7.942336 28.79424,6.166976 27.3136,4.686336 C25.83296,3.205376 24.0576,2.019456 22.12288,1.217856 C20.18816,0.416576 18.09408,-6.4e-05 16,-6.4e-05 C13.90592,-6.4e-05 11.81152,0.416576 9.8768,1.217856 C7.94208,2.019456 6.16704,3.205376 4.68608,4.686336 C3.20544,6.166976 2.0192,7.942336 1.21792,9.877056 C0.41632,11.811776 0,13.905856 0,15.999936 C0,18.094016 0.41632,20.188096 1.21792,22.122816 C2.0192,24.057536 3.20544,25.832896 4.68608,27.313856 C6.16704,28.794496 7.94208,29.980736 9.8768,30.782016 C11.81152,31.583296 13.90592,31.999936 16,31.999936 C18.09408,31.999936 20.18816,31.583296 22.12288,30.782016 C24.0576,29.980736 25.83296,28.794496 27.3136,27.313856 C28.79424,25.832896 29.98048,24.057536 30.78208,22.122816 C31.58336,20.188096 32,18.094016 32,15.999936 Z"/>
    <path fill="#000" d="M11.85472,3.383616 C13.34528,2.893696 14.93824,2.669696 16.51616,2.730176 C18.0944,2.790656 19.65792,3.135936 21.11296,3.743936 C22.56832,4.351936 23.9152,5.222976 25.06752,6.297536 C26.59168,7.719296 27.77504,9.497536 28.4848,11.486656 C29.19488,13.476096 29.43136,15.676416 29.15744,17.771136 C28.88384,19.865856 28.09984,21.855296 26.91392,23.566016 C25.728,25.276736 24.13984,26.708416 22.27456,27.700416 C20.40928,28.692096 18.26624,29.243776 16.15392,29.275776 C14.0416,29.307776 11.95968,28.820416 10.09504,27.894976 C8.23072,26.969536 6.58336,25.606336 5.33248,23.903616 C4.0816,22.200896 3.2272,20.158656 2.888,18.074816 C2.5488,15.990656 2.7248,13.864576 3.37472,11.881216 C3.86592,10.381696 4.62816,8.964096 5.6048,7.735616 L4.12032,7.735616 L4.12032,5.281856 L9.93696,5.281856 L9.93696,10.713536 L7.4832,10.713536 L7.4832,9.229376 C6.6832,10.235456 6.05856,11.396736 5.65632,12.625536 C5.12416,14.251136 4.9808,15.995136 5.25632,17.696896 C5.59872,19.813696 6.5888,21.864896 8.06656,23.445696 C9.83424,25.336256 12.29952,26.554176 14.86592,26.820736 C17.432,27.087296 20.0992,26.402816 22.21728,24.928576 C24.33536,23.454336 25.90496,21.190336 26.54208,18.689856 C27.1792,16.189376 26.88384,13.452416 25.73504,11.142016 C24.58624,8.831616 22.58368,6.948416 20.18912,5.958976 C17.79456,4.969216 15.00768,4.873856 12.60384,5.663616 L11.85472,3.383616 Z"/>
    <path fill="#000" d="M16.2854784,10.4993482 C16.6258058,10.4993482 16.9631356,10.549605 17.2970682,10.6107441 C17.9857166,10.7365839 18.6469869,10.9803491 19.2519024,11.3277936 C19.65438,11.5590934 20.0220855,11.8438159 20.3508222,12.168902 C20.6028203,12.4184051 20.8210456,12.6981811 21.0188871,12.9910158 C21.2183273,13.2862249 21.378599,13.6055731 21.5066964,13.9371886 C21.5226836,14.023654 21.6062166,14.0818253 21.6933469,14.0671835 L22.8112514,14.0671835 L22.8112514,14.0671835 C22.9547365,14.0671835 22.9547365,14.0671835 22.9611314,14.2033121 C22.9767189,14.5410614 22.9767189,14.8790085 22.9611314,15.2175492 C22.9565351,15.316282 22.9235615,15.3414104 22.8232418,15.3414104 L21.9615321,15.3414104 C21.874202,15.3414104 21.8490222,15.3414104 21.8552172,15.4526085 C21.8756009,15.8301279 21.8893898,16.2072516 21.8552172,16.5839795 C21.8552172,16.6890439 21.8552172,16.7013113 21.9743218,16.7013113 L22.9605319,16.7013113 L22.9605319,16.7013113 C23.004097,16.7569103 22.9605319,16.8125093 22.9605319,16.868702 C22.9669268,16.9405256 22.9669268,17.0129429 22.9605319,17.0847665 L22.9605319,17.833078 L22.9605319,17.833078 C22.9605319,17.9381424 22.9293568,17.9694045 22.8354321,17.9694045 L21.6551774,17.9694045 L21.6551774,17.9694045 C21.5730432,17.9535756 21.4929074,18.005811 21.4739226,18.0869341 C21.1929477,18.8103151 20.7433078,19.4589045 20.1623731,19.9790819 C19.9505428,20.1688309 19.7271218,20.3463125 19.4941084,20.5105374 C19.2441086,20.6527997 19.0009034,20.8011957 18.7447086,20.9187253 C18.2754845,21.1341963 17.7782827,21.2837795 17.2706893,21.3821165 C16.7900743,21.4751114 16.2998669,21.5063734 15.8092599,21.4996462 C14.3648168,21.47986 12.9199741,21.47986 11.4751314,21.4996462 L11.4751314,21.4933146 L11.4769299,21.4921274 L11.4769299,18.0730838 L11.4769299,18.0730838 C11.4769299,17.9923564 11.4769299,17.9804847 11.3772098,17.9804847 L10.0218954,17.9804847 L10.0218954,17.9804847 C9.94675557,17.9804847 9.91578038,17.9804847 9.91578038,17.8815541 L9.91578038,16.7068514 L9.91578038,16.7068514 L11.3646199,16.7068514 L11.3646199,16.7068514 C11.4453552,16.7068514 11.4769299,16.7068514 11.4769299,16.6015892 L11.4769299,15.4391539 L11.4769299,15.4391539 C11.4769299,15.3649559 11.4769299,15.3467527 11.3772098,15.3467527 L10.0218954,15.3467527 L10.0218954,15.3467527 C9.94675557,15.3467527 9.91578038,15.3467527 9.91578038,15.247822 L9.91578038,14.1597826 C9.91578038,14.0915205 9.91578038,14.0735151 10.0157004,14.0735151 L11.358225,14.0735151 L11.358225,14.0735151 C11.4517501,14.0735151 11.4769299,14.0735151 11.4769299,13.9559855 L11.4769299,10.6232094 C11.4769299,10.5242787 11.4769299,10.4993482 11.6020297,10.4993482 L16.2854784,10.4993482 L16.2854784,10.4993482 Z M19.7822776,17.9864206 L12.8568247,17.9864206 C12.7634994,17.9864206 12.7321246,17.9864206 12.7321246,18.109886 L12.7321246,20.2558899 C12.7321246,20.3546227 12.7321246,20.3797511 12.8568247,20.3797511 L16.0542636,20.3797511 L16.0542636,20.3797511 C16.2071412,20.3910292 16.3600187,20.3803447 16.5096988,20.3488847 C16.973927,20.3160397 17.4303614,20.2163176 17.8656128,20.0518949 C18.0220874,19.9927343 18.1767636,19.9268465 18.321048,19.8417662 L18.3646131,19.8417662 C19.1142127,19.4559366 19.723125,18.8492938 20.1070175,18.1051374 C20.1092157,18.1003887 20.1507824,18.0115489 20.1016218,17.9870141 C19.9955068,17.9747467 19.8883926,17.9747467 19.7822776,17.9864206 Z M20.4069772,15.3400254 L12.8504298,15.3400254 L12.8504298,15.3400254 C12.7571046,15.3400254 12.7321246,15.3706939 12.7321246,15.457555 L12.7321246,16.5580597 C12.7321246,16.6798292 12.7321246,16.6972248 12.8262579,16.6997099 L20.4005823,16.7001241 L20.4005823,16.7001241 C20.4817173,16.7001241 20.5198868,16.7001241 20.5256821,16.5950598 C20.547065,16.2118024 20.5566573,15.8277536 20.5256821,15.4448919 C20.5256821,15.3706939 20.4885119,15.3400254 20.4069772,15.3400254 Z M16.1909541,11.6732594 C15.0732494,11.6827568 13.9555446,11.6827568 12.8376401,11.6732594 C12.7439151,11.672468 12.731525,11.7102595 12.731525,11.790789 L12.731525,13.9856647 L12.731525,13.9856647 C12.731525,14.0782638 12.731525,14.1031943 12.85023,14.1031943 L20.0566578,14.1031943 L20.0566578,14.1031943 C20.0596554,14.1026007 20.1190079,14.0909269 20.1317976,14.053729 L20.1010223,14.053729 C20.1124131,14.0256327 20.1124131,13.995162 20.1016218,13.9674614 C20.0382725,13.8307393 19.9631327,13.7003486 19.8760025,13.5778725 C19.7447077,13.3685352 19.5898317,13.1758183 19.4137727,13.0026896 C19.3306393,12.898021 19.2343165,12.8042347 19.1264029,12.7244966 C18.5858359,12.2690199 17.9431507,11.9467038 17.2527037,11.7846553 C16.9049822,11.7031365 16.5482679,11.6702915 16.1909541,11.6732594 Z"/>
  </g>
</svg>

<svg viewBox="0 0 32 32"><g fill="none" fill-rule="evenodd"><path fill="#FFF" d="M32 16c0-2.094-.417-4.188-1.218-6.123a16.057 16.057 0 00-3.468-5.19 16.052 16.052 0 00-5.191-3.47A16.055 16.055 0 0016 0c-2.094 0-4.188.417-6.123 1.218a16.055 16.055 0 00-5.19 3.468 16.05 16.05 0 00-3.47 5.191A16.049 16.049 0 000 16c0 2.094.416 4.188 1.218 6.123a16.056 16.056 0 003.468 5.19 16.054 16.054 0 005.19 3.469A16.056 16.056 0 0016 32c2.094 0 4.188-.417 6.123-1.218a16.05 16.05 0 005.19-3.468 16.062 16.062 0 003.47-5.191A16.055 16.055 0 0032 16z"/><path fill="#000" d="M11.855 3.384a13.266 13.266 0 0113.213 2.914 13.155 13.155 0 013.417 5.189c.71 1.99.946 4.19.672 6.284a13.194 13.194 0 01-2.243 5.795 13.207 13.207 0 01-4.64 4.134 13.622 13.622 0 01-6.12 1.576 13.207 13.207 0 01-6.059-1.381 13.19 13.19 0 01-4.763-3.991 13.662 13.662 0 01-2.444-5.83 13.13 13.13 0 01.487-6.193 13.391 13.391 0 012.23-4.145H4.12V5.282h5.817v5.432H7.483V9.229a10.961 10.961 0 00-1.827 3.397 10.786 10.786 0 00-.4 5.07 11.107 11.107 0 002.81 5.75 10.952 10.952 0 006.8 3.375 11.023 11.023 0 007.351-1.892 10.999 10.999 0 004.325-6.24c.637-2.5.342-5.237-.807-7.547a10.919 10.919 0 00-5.546-5.183c-2.394-.99-5.181-1.085-7.585-.295l-.75-2.28z"/><path fill="#000" d="M16.285 10.5c.34 0 .678.05 1.012.11a6.16 6.16 0 011.955.718c.402.231.77.516 1.099.84.252.25.47.53.668.823.2.295.36.615.488.946.016.087.1.145.186.13h1.118c.144 0 .144 0 .15.136.016.338.016.676 0 1.015-.004.098-.037.123-.138.123h-.861c-.088 0-.113 0-.107.112.02.377.034.754 0 1.131 0 .105 0 .117.12.117h.986c.043.056 0 .112 0 .168a1.22 1.22 0 010 .216v.748c0 .105-.032.136-.126.136h-1.18a.156.156 0 00-.181.118 4.945 4.945 0 01-1.312 1.892c-.211.19-.435.367-.668.532-.25.142-.493.29-.75.408a6.48 6.48 0 01-1.473.463 7.17 7.17 0 01-1.462.118c-1.444-.02-2.889-.02-4.334 0v-.007h.002v-3.42c0-.08 0-.093-.1-.093h-1.355c-.075 0-.106 0-.106-.098v-1.175h1.449c.08 0 .112 0 .112-.105v-1.163c0-.074 0-.092-.1-.092h-1.355c-.075 0-.106 0-.106-.1V14.16c0-.068 0-.086.1-.086h1.342c.094 0 .119 0 .119-.118v-3.333c0-.099 0-.124.125-.124h4.683zm3.497 7.486h-6.925c-.094 0-.125 0-.125.124v2.146c0 .099 0 .124.125.124h3.197c.153.011.306 0 .456-.031a4.82 4.82 0 001.356-.297c.156-.06.31-.125.455-.21h.044a4.036 4.036 0 001.742-1.737c.002-.005.044-.093-.005-.118a1.424 1.424 0 00-.32 0zm.625-2.646H12.85c-.093 0-.118.03-.118.118v1.1c0 .122 0 .14.094.142h7.575c.08 0 .119 0 .125-.105a8.432 8.432 0 000-1.15c0-.074-.037-.105-.119-.105zm-4.216-3.667c-1.118.01-2.235.01-3.353 0-.094 0-.106.037-.106.118v2.195c0 .092 0 .117.118.117h7.207c.003 0 .062-.012.075-.05H20.1a.116.116 0 000-.086 2.443 2.443 0 00-.225-.39 3.163 3.163 0 00-.462-.574 1.524 1.524 0 00-.288-.279 4.507 4.507 0 00-1.873-.94 4.484 4.484 0 00-1.062-.11z"/></g></svg>
